X: 34538
T: Ríl TG4
R: reel
M: 4/4
K: Ddorian
|:FAEG FD{E}DD|A_BAG EG{A}GE|FAEG FD{E}DC|1 A,G,A,C D3z:|2 A,C{G}FE D2zD||
K:Gmaj
GBdB {d}cBAG|BdgB d2BA|GBdB {d}cBAG|cdBc A3z|
GBdB {d}cBAG|BdgB d2ef|gbaf gdgB|cBAd G2DE||

